svg/u1f926_1f3fd_200d_2640.svg

<svg viewBox="0 0 128 128" xmlns="http://www.w3.org/2000/svg">
  <g id="hairGroup_1_">
    <path id="hair_10_" d="M64.67,5.43c-41.01,0-40.68,37.92-40.68,38.52c0,24.56,1.88,59.25,11.71,72.9 c3.9,5.41,11.43,5.71,11.43,5.71l16.97-0.03l16.97,0.03c0,0,7.53-0.3,11.43-5.71c9.83-13.65,11.71-48.34,11.71-72.9 C104.2,43.35,105.67,5.43,64.67,5.43z" fill="#543930"/>
    <radialGradient id="hairHighlights_2_" cx="64.0963" cy="67" gradientTransform="matrix(1 0 0 -1.1901 0 140.7345)" gradientUnits="userSpaceOnUse" r="47.5316">
      <stop offset="0.7936" stop-color="#6D4C41" stop-opacity="0"/>
      <stop offset="1" stop-color="#6D4C41"/>
    </radialGradient>
    <path id="hairHighlights_1_" d="M64.67,5.43c-41.01,0-40.68,37.92-40.68,38.52 c0,24.56,1.88,59.25,11.71,72.9c3.9,5.41,11.43,5.71,11.43,5.71l16.97-0.03l16.97,0.03c0,0,7.53-0.3,11.43-5.71 c9.83-13.65,11.71-48.34,11.71-72.9C104.2,43.35,105.67,5.43,64.67,5.43z" fill="url(#hairHighlights_2_)"/>
  </g>
  <g id="shirt">
    <linearGradient id="SVGID_1_" gradientTransform="matrix(1 0 0 -1 0 128)" gradientUnits="userSpaceOnUse" x1="64" x2="64" y1="32.0709" y2="-3.4371">
      <stop offset="0" stop-color="#651FFF"/>
      <stop offset="0.7047" stop-color="#5914F2"/>
      <stop offset="1" stop-color="#530EEB"/>
    </linearGradient>
    <path d="M64.13,96c-0.04,0-0.09,0-0.13,0c-25.49,0.03-52,7.28-52,25.06V124h1.5H15h98h1.5h1.5v-2.94 C116,104.3,89.74,96,64.13,96z" fill="url(#SVGID_1_)"/>
  </g>
  <g id="neck">
    <path d="M54.92,90.08v9.98c0,4.51,3.7,8.17,8.26,8.17h1.65c4.56,0,8.26-3.66,8.26-8.17v-9.98L54.92,90.08z" fill="#99674F"/>
  </g>
  <path id="head" d="M64.02,11.07L64.02,11.07L64.02,11.07c-17.4-0.01-33.53,18.6-33.54,45.38 c-0.01,26.64,16.59,39.82,33.5,39.83s33.53-13.15,33.54-39.79C97.53,29.69,81.42,11.07,64.02,11.07z" fill="#BA8D68"/>
  <g id="eyebrows">
    <path d="M54.99,51.82c-0.93-1.23-3.07-3.01-7.23-3.01s-6.31,1.79-7.23,3.01c-0.41,0.54-0.31,1.17-0.02,1.55 c0.26,0.35,1.04,0.68,1.9,0.39s2.54-1.16,5.35-1.18c2.81,0.02,4.49,0.89,5.35,1.18c0.86,0.29,1.64-0.03,1.9-0.39 C55.29,52.99,55.39,52.36,54.99,51.82z" fill="#613E31"/>
    <path d="M87.48,51.82c-0.93-1.23-3.07-3.01-7.23-3.01s-6.31,1.79-7.23,3.01c-0.41,0.54-0.31,1.17-0.02,1.55 c0.26,0.35,1.04,0.68,1.9,0.39s2.54-1.16,5.35-1.18c2.81,0.02,4.49,0.89,5.35,1.18c0.86,0.29,1.64-0.03,1.9-0.39 C87.79,52.99,87.89,52.36,87.48,51.82z" fill="#613E31"/>
  </g>
  <path id="nose" d="M67.81,68.06c-0.11-0.04-0.21-0.07-0.32-0.08H60.5c-0.11,0.01-0.21,0.04-0.32,0.08 c-0.63,0.26-0.98,0.91-0.68,1.61c0.3,0.7,1.69,2.66,4.49,2.66c2.8,0,4.2-1.96,4.49-2.66C68.79,68.97,68.45,68.31,67.81,68.06z" fill="#99674F"/>
  <g id="eyes">
    <path d="M47.69,60.3c-2.06,0-3.9-0.5-5.18-1.29c-0.55-0.34-0.87-0.14-0.77,0.5c0.37,2.48,2.9,4.4,5.95,4.4 c3.06,0,5.58-1.92,5.95-4.4c0.1-0.64-0.22-0.84-0.77-0.5C51.59,59.8,49.75,60.3,47.69,60.3z" fill="#49362E"/>
    <path d="M80.31,60.3c-2.06,0-3.9-0.5-5.18-1.29c-0.55-0.34-0.87-0.14-0.77,0.5c0.38,2.48,2.9,4.4,5.95,4.4 s5.58-1.92,5.95-4.4c0.1-0.64-0.22-0.84-0.77-0.5C84.21,59.8,82.36,60.3,80.31,60.3z" fill="#49362E"/>
  </g>
  <path id="mouth" d="M73.95,81.76c0,1.01-4.46,1.22-9.95,1.22s-9.95-0.23-9.95-1.22 c0-1.04,4.46-1.68,9.95-1.68S73.95,80.7,73.95,81.76z" fill="#5D4037"/>
  <g id="hairGroup">
    <path id="hair_5_" d="M64.67,5.43c-41.01,0-40.68,37.92-40.68,38.52c0,7.76,0.19,16.53,0.75,25.32l6.72-0.02 c-0.06-2.92,1.99-20.97,8.08-22.34C61.9,41.9,74.55,30.04,74.55,30.04c3.29,7.18,13.58,14.19,17.27,16.86 c3.03,2.19,4.29,18.55,4.24,22.38h7.37c0-0.05,0.02-0.1,0.02-0.16c0.56-8.75,0.74-17.46,0.74-25.17 C104.2,43.35,105.67,5.43,64.67,5.43z" fill="#543930"/>
    <radialGradient id="hairHighlights_3_" cx="64.4296" cy="62.9755" gradientTransform="matrix(1 0 0 -1.2135 0 141.4484)" gradientUnits="userSpaceOnUse" r="49.788">
      <stop offset="0.7945" stop-color="#6D4C41" stop-opacity="0"/>
      <stop offset="1" stop-color="#6D4C41"/>
    </radialGradient>
    <path id="hairHighlights" d="M64.67,5.43c-41.01,0-40.68,37.92-40.68,38.52 c0,7.76,0.19,16.53,0.75,25.32l6.72-0.02c-0.06-2.92,1.99-20.97,8.08-22.34C61.9,41.9,74.55,30.04,74.55,30.04 c3.29,7.18,13.58,14.19,17.27,16.86c3.03,2.19,4.29,18.55,4.24,22.38h7.37c0-0.05,0.02-0.1,0.02-0.16 c0.56-8.75,0.74-17.46,0.74-25.17C104.2,43.35,105.67,5.43,64.67,5.43z" fill="url(#hairHighlights_3_)"/>
  </g>
  <linearGradient id="SVGID_2_" gradientTransform="matrix(1 0 0 -1 0 128)" gradientUnits="userSpaceOnUse" x1="69.9853" x2="57.4682" y1="42.7123" y2="36.8181">
    <stop offset="0.5089" stop-color="#000000"/>
    <stop offset="1" stop-color="#000000" stop-opacity="0"/>
  </linearGradient>
  <path d="M81.84,74.24c1.75-4.43,1.44-6.57,0.16-10.63 c-0.33-1.05-0.53-3.34-0.6-4.12c-0.26-2.98,0.76-6.75,1.41-7.5c1.19-1.37,1.53-2.85,1.38-4.38c-0.22-2.22-3.89-5.01-7.91-0.84 c-1.62,1.69-2.31,4.38-2.31,4.38c-1.81-4.31-4.98-11.93-5.39-12.9l-0.06-0.15c-0.65-1.63-1.88-2.88-3.35-3.4 c-1.33-0.48-2.76-0.35-4.04,0.35c-0.88,0.48-1.57,1.22-2,2.1c-1.38-1.3-3.16-1.76-4.93-1.16c-1.39,0.47-2.45,1.46-2.98,2.78 c-0.35,0.88-0.45,1.85-0.3,2.83c-1.09-0.2-2.22,0-3.24,0.6c-0.94,0.56-3.81,2.71-1.49,7.17c0.05,0.1,0.12,0.23,0.21,0.38 c-0.88,0.04-1.59,0.33-2.05,0.59c-1.3,0.72-2.19,1.87-2.49,3.25c-0.33,1.48,0.06,3.1,1.04,4.43l6.18,9.06c0,0,3.87,5.86,5.46,8.3 c1.27,1.94,2.69,3.53,4.25,4.73c-0.34,0.99-0.28,2.05,0.14,2.92L73.88,124h34.46C108.34,124,81.85,74.25,81.84,74.24z" enable-background="new " fill="url(#SVGID_2_)" opacity="0.2"/>
  <linearGradient id="hand_1_" gradientTransform="matrix(1 0 0 -1 0 128)" gradientUnits="userSpaceOnUse" x1="57.7601" x2="74.5043" y1="91.6249" y2="53.2994">
    <stop offset="0.5" stop-color="#BA8D68"/>
    <stop offset="1" stop-color="#A47B62"/>
  </linearGradient>
  <path id="hand" d="M81.19,45.85c-1.08-0.41-2.83-0.01-4.37,1.86s-1.01,4.46-1.65,6.08 c-0.21,0.52-0.94,0.52-1.15,0c-1.4-3.44-6.7-16.01-6.7-16.01c-0.68-1.71-2.29-2.66-3.87-1.79c-1.26,0.69-1.49,2.26-0.91,3.69 l4.29,11.51c0.06,0.15,0,0.32-0.13,0.38l0,0c-0.14,0.07-0.32,0.01-0.4-0.15l-6.88-12.5c-0.71-1.36-1.94-2.27-3.3-1.81 c-1.69,0.57-2.06,2.41-1.21,4.05l6.22,12.72c0.16,0.31,0.06,0.67-0.21,0.84c0,0-0.01,0-0.01,0.01c-0.28,0.17-0.66,0.06-0.84-0.25 c0,0-5.46-8.63-6.22-9.89s-2.22-2.41-3.78-1.49s-1.31,2.42-0.55,3.87c0.65,1.24,4.61,7.94,5.76,9.87c0.17,0.29,0.08,0.66-0.2,0.84 l0,0c-0.26,0.17-0.61,0.11-0.81-0.13l-4.17-5.05c-1.03-1.25-2.17-1.91-3.42-1.22c-1.56,0.86-1.69,2.59-0.6,4.08l6.2,9.09 c0,0,3.88,5.87,5.47,8.31c4.19,6.42,8.62,6.24,9.52,6.26c2.34,0.05,7.24-2.01,8.82-2.77c8.83-4.24,4.41-11.94,4.01-16.53 c-0.25-2.83,0.83-8.11,2.23-9.95C83.69,47.93,82.11,46.19,81.19,45.85z" fill="url(#hand_1_)"/>
  <linearGradient id="shirt_x5F_fill_2_" gradientTransform="matrix(1 0 0 -1 0 128)" gradientUnits="userSpaceOnUse" x1="67.0938" x2="83.6101" y1="19.1137" y2="25.6022">
    <stop offset="0" stop-color="#651FFF"/>
    <stop offset="0.7047" stop-color="#5914F2"/>
    <stop offset="1" stop-color="#530EEB"/>
  </linearGradient>
  <path id="shirt_x5F_fill_1_" d="M78.12,124L62.37,80.9c-0.02-0.04-0.03-0.09-0.06-0.13 c-0.18-0.37-0.2-0.79-0.05-1.17s0.43-0.69,0.8-0.85l16.58-7.29c0.19-0.08,0.4-0.13,0.6-0.13c0.56,0,1.07,0.31,1.33,0.8L111.36,124 H78.12z" fill="url(#shirt_x5F_fill_2_)"/>
</svg>

<svg viewBox="0 0 128 128" xmlns="http://www.w3.org/2000/svg">
  <defs>
    <linearGradient id="SVGID_2_" gradientTransform="matrix(1 0 0 -1 0 0)" gradientUnits="userSpaceOnUse" x1="69.9853" x2="57.4682" y1="-85.2877" y2="-91.1819">
      <stop offset="0.5089" stop-color="#000000"/>
      <stop offset="1" stop-color="#000000" stop-opacity="0"/>
    </linearGradient>
    <linearGradient id="hand_1_" gradientTransform="matrix(1 0 0 -1 0 0)" gradientUnits="userSpaceOnUse" x1="57.7601" x2="74.5043" y1="-36.3751" y2="-74.7006">
      <stop offset="0.5" stop-color="#BA8D68"/>
      <stop offset="1" stop-color="#A47B62"/>
    </linearGradient>
    <linearGradient id="shirt_x5F_fill_2_" gradientTransform="matrix(1 0 0 -1 0 0)" gradientUnits="userSpaceOnUse" x1="67.0938" x2="83.6101" y1="-108.8863" y2="-102.3978">
      <stop offset="0" stop-color="#651FFF"/>
      <stop offset="0.7047" stop-color="#5914F2"/>
      <stop offset="1" stop-color="#530EEB"/>
    </linearGradient>
    <linearGradient id="SVGID_1_" gradientTransform="matrix(1 0 0 -1 0 0)" gradientUnits="userSpaceOnUse" x1="64" x2="64" y1="-95.9291" y2="-131.4371">
      <stop offset="0" stop-color="#651FFF"/>
      <stop offset="0.7047" stop-color="#5914F2"/>
      <stop offset="1" stop-color="#530EEB"/>
    </linearGradient>
    <radialGradient id="hairHighlights_2_" cx="64.0963" cy="-51.254348" gradientTransform="matrix(1 0 0 -1.1901 0 0)" gradientUnits="userSpaceOnUse" r="47.5316">
      <stop offset="0.7936" stop-color="#6D4C41" stop-opacity="0"/>
      <stop offset="1" stop-color="#6D4C41"/>
    </radialGradient>
    <radialGradient id="hairHighlights_3_" cx="64.4296" cy="-53.58684" gradientTransform="matrix(1 0 0 -1.2135 0 0)" gradientUnits="userSpaceOnUse" r="49.788">
      <stop offset="0.7945" stop-color="#6D4C41" stop-opacity="0"/>
      <stop offset="1" stop-color="#6D4C41"/>
    </radialGradient>
  </defs>
  <path id="hair_10_" d="M64.67,5.43 C23.66,5.43 23.99,43.35 23.99,43.95 C23.99,68.51 25.87,103.2 35.7,116.85 C39.6,122.26 47.13,122.56 47.13,122.56 L64.1,122.53 L81.07,122.56 C81.07,122.56 88.6,122.26 92.5,116.85 C102.33,103.2 104.21,68.51 104.21,43.95 C104.2,43.35 105.67,5.43 64.67,5.43 Z" fill="#543930"/>
  <path id="hairHighlights_1_" d="M64.67,5.43 C23.66,5.43 23.99,43.35 23.99,43.95 C23.99,68.51 25.87,103.2 35.7,116.85 C39.6,122.26 47.13,122.56 47.13,122.56 L64.1,122.53 L81.07,122.56 C81.07,122.56 88.6,122.26 92.5,116.85 C102.33,103.2 104.21,68.51 104.21,43.95 C104.2,43.35 105.67,5.43 64.67,5.43 Z" fill="url(#hairHighlights_2_)"/>
  <path d="M64.13,96 C64.09,96 64.04,96 64,96 C38.51,96.03 12,103.28 12,121.06 L12,124 L13.5,124 L15,124 L113,124 L114.5,124 L116,124 L116,121.06 C116,104.3 89.74,96 64.13,96 Z" fill="url(#SVGID_1_)"/>
  <path d="M54.92,90.08 L54.92,100.06 C54.92,104.57 58.62,108.23 63.18,108.23 L64.83,108.23 C69.39,108.23 73.09,104.57 73.09,100.06 L73.09,90.08 L54.92,90.08 Z" fill="#99674F"/>
  <path id="head" d="M64.02,11.07 L64.02,11.07 L64.02,11.07 C46.62,11.06 30.49,29.67 30.48,56.45 C30.47,83.09 47.07,96.27 63.98,96.28 C80.89,96.29 97.51,83.13 97.52,56.49 C97.53,29.69 81.42,11.07 64.02,11.07 Z" fill="#BA8D68"/>
  <path d="M54.99,51.82 C54.06,50.59 51.92,48.81 47.76,48.81 C43.6,48.81 41.45,50.6 40.53,51.82 C40.12,52.36 40.22,52.99 40.51,53.37 C40.77,53.72 41.55,54.05 42.41,53.76 C43.27,53.47 44.95,52.6 47.76,52.58 C50.57,52.6 52.25,53.47 53.11,53.76 C53.97,54.05 54.75,53.73 55.01,53.37 C55.29,52.99 55.39,52.36 54.99,51.82 Z" fill="#613E31"/>
  <path d="M87.48,51.82 C86.55,50.59 84.41,48.81 80.25,48.81 C76.09,48.81 73.94,50.6 73.02,51.82 C72.61,52.36 72.71,52.99 73,53.37 C73.26,53.72 74.04,54.05 74.9,53.76 C75.76,53.47 77.44,52.6 80.25,52.58 C83.06,52.6 84.74,53.47 85.6,53.76 C86.46,54.05 87.24,53.73 87.5,53.37 C87.79,52.99 87.89,52.36 87.48,51.82 Z" fill="#613E31"/>
  <path id="nose" d="M67.81,68.06 C67.7,68.02 67.6,67.99 67.49,67.98 L60.5,67.98 C60.39,67.99 60.29,68.02 60.18,68.06 C59.55,68.32 59.2,68.97 59.5,69.67 C59.8,70.37 61.19,72.33 63.99,72.33 C66.79,72.33 68.19,70.37 68.48,69.67 C68.79,68.97 68.45,68.31 67.81,68.06 Z" fill="#99674F"/>
  <path d="M47.69,60.3 C45.63,60.3 43.79,59.8 42.51,59.01 C41.96,58.67 41.64,58.87 41.74,59.51 C42.11,61.99 44.64,63.91 47.69,63.91 C50.75,63.91 53.27,61.99 53.64,59.51 C53.74,58.87 53.42,58.67 52.87,59.01 C51.59,59.8 49.75,60.3 47.69,60.3 Z" fill="#49362E"/>
  <path d="M80.31,60.3 C78.25,60.3 76.41,59.8 75.13,59.01 C74.58,58.67 74.26,58.87 74.36,59.51 C74.74,61.99 77.26,63.91 80.31,63.91 C83.36,63.91 85.89,61.99 86.26,59.51 C86.36,58.87 86.04,58.67 85.49,59.01 C84.21,59.8 82.36,60.3 80.31,60.3 Z" fill="#49362E"/>
  <path id="mouth" d="M73.95,81.76 C73.95,82.77 69.49,82.98 64,82.98 C58.51,82.98 54.05,82.75 54.05,81.76 C54.05,80.72 58.51,80.08 64,80.08 C69.49,80.08 73.95,80.7 73.95,81.76 Z" fill="#5D4037"/>
  <path id="hair_5_" d="M64.67,5.43 C23.66,5.43 23.99,43.35 23.99,43.95 C23.99,51.71 24.18,60.48 24.74,69.27 L31.46,69.25 C31.4,66.33 33.45,48.28 39.54,46.91 C61.9,41.9 74.55,30.04 74.55,30.04 C77.84,37.22 88.13,44.23 91.82,46.9 C94.85,49.09 96.11,65.45 96.06,69.28 L103.43,69.28 C103.43,69.23 103.45,69.18 103.45,69.12 C104.01,60.37 104.19,51.66 104.19,43.95 C104.2,43.35 105.67,5.43 64.67,5.43 Z" fill="#543930"/>
  <path id="hairHighlights" d="M64.67,5.43 C23.66,5.43 23.99,43.35 23.99,43.95 C23.99,51.71 24.18,60.48 24.74,69.27 L31.46,69.25 C31.4,66.33 33.45,48.28 39.54,46.91 C61.9,41.9 74.55,30.04 74.55,30.04 C77.84,37.22 88.13,44.23 91.82,46.9 C94.85,49.09 96.11,65.45 96.06,69.28 L103.43,69.28 C103.43,69.23 103.45,69.18 103.45,69.12 C104.01,60.37 104.19,51.66 104.19,43.95 C104.2,43.35 105.67,5.43 64.67,5.43 Z" fill="url(#hairHighlights_3_)"/>
  <path d="M81.84,74.24 C83.59,69.81 83.28,67.67 82,63.61 C81.67,62.56 81.47,60.27 81.4,59.49 C81.14,56.51 82.16,52.74 82.81,51.99 C84,50.62 84.34,49.14 84.19,47.61 C83.97,45.39 80.3,42.6 76.28,46.77 C74.66,48.46 73.97,51.15 73.97,51.15 C72.16,46.84 68.99,39.22 68.58,38.25 L68.52,38.1 C67.87,36.47 66.64,35.22 65.17,34.7 C63.84,34.22 62.41,34.35 61.13,35.05 C60.25,35.53 59.56,36.27 59.13,37.15 C57.75,35.85 55.97,35.39 54.2,35.99 C52.81,36.46 51.75,37.45 51.22,38.77 C50.87,39.65 50.77,40.62 50.92,41.6 C49.83,41.4 48.7,41.6 47.68,42.2 C46.74,42.76 43.87,44.91 46.19,49.37 C46.24,49.47 46.31,49.6 46.4,49.75 C45.52,49.79 44.81,50.08 44.35,50.34 C43.05,51.06 42.16,52.21 41.86,53.59 C41.53,55.07 41.92,56.69 42.9,58.02 L49.08,67.08 C49.08,67.08 52.95,72.94 54.54,75.38 C55.81,77.32 57.23,78.91 58.79,80.11 C58.45,81.1 58.51,82.16 58.93,83.03 L73.88,124 L108.34,124 C108.34,124 81.85,74.25 81.84,74.24 Z" fill="url(#SVGID_2_)" opacity="0.2"/>
  <path id="hand" d="M81.19,45.85 C80.11,45.44 78.36,45.84 76.82,47.71 C75.28,49.58 75.81,52.17 75.17,53.79 C74.96,54.31 74.23,54.31 74.02,53.79 C72.62,50.35 67.32,37.78 67.32,37.78 C66.64,36.07 65.03,35.12 63.45,35.99 C62.19,36.68 61.96,38.25 62.54,39.68 L66.83,51.19 C66.89,51.34 66.83,51.51 66.7,51.57 L66.7,51.57 C66.56,51.64 66.38,51.58 66.3,51.42 L59.42,38.92 C58.71,37.56 57.48,36.65 56.12,37.11 C54.43,37.68 54.06,39.52 54.91,41.16 L61.13,53.88 C61.29,54.19 61.19,54.55 60.92,54.72 C60.92,54.72 60.91,54.72 60.91,54.73 C60.63,54.9 60.25,54.79 60.07,54.48 C60.07,54.48 54.61,45.85 53.85,44.59 C53.09,43.33 51.63,42.18 50.07,43.1 C48.51,44.02 48.76,45.52 49.52,46.97 C50.17,48.21 54.13,54.91 55.28,56.84 C55.45,57.13 55.36,57.5 55.08,57.68 L55.08,57.68 C54.82,57.85 54.47,57.79 54.27,57.55 L50.1,52.5 C49.07,51.25 47.93,50.59 46.68,51.28 C45.12,52.14 44.99,53.87 46.08,55.36 L52.28,64.45 C52.28,64.45 56.16,70.32 57.75,72.76 C61.94,79.18 66.37,79 67.27,79.02 C69.61,79.07 74.51,77.01 76.09,76.25 C84.92,72.01 80.5,64.31 80.1,59.72 C79.85,56.89 80.93,51.61 82.33,49.77 C83.69,47.93 82.11,46.19 81.19,45.85 Z" fill="url(#hand_1_)"/>
  <path id="shirt_x5F_fill_1_" d="M78.12,124 L62.37,80.9 C62.35,80.86 62.34,80.81 62.31,80.77 C62.13,80.4 62.11,79.98 62.26,79.6 C62.41,79.22 62.69,78.91 63.06,78.75 L79.64,71.46 C79.83,71.38 80.04,71.33 80.24,71.33 C80.8,71.33 81.31,71.64 81.57,72.13 L111.36,124 L78.12,124 Z" fill="url(#shirt_x5F_fill_2_)"/>
</svg>
